X:239
T:Paddy O'Rafferty 1  
B:CRE2.011(i) (PÃÂÃÂÃÂÃÂ¡idÃÂÃÂÃÂÃÂ­n ÃÂÃÂÃÂ¢ÃÂÃÂ Raifeartaigh 1)
F:file ID: cre.2/239paddy_o_1
L:1/8
M:6/8
R:jig
Q:160
K:D
AB/c/|:dff cee|def gfe|dff cee|dfe dBA|
"5"dff cee|def ggg|afd gf/e/d|1 dfe dBA:|2 dfe dcB||
"9"|:AFA Adf|gfe fdB|AFA AFA|dfe dcB|AFA BGB|
"13"ege efg|faf gec|1 dfe dcB:|2 dfe dBA||
%
"17"|:fAA eAA|fg/a/f gfe|fAA eAA|dfe dBA|fAA eAA|
"21"fg/a/f ggg|afd gf/e/d|1 dfe dBA:|2 dfe dcB||
%
"25"|:ADB ABf|gfe fdB|ADA AFA|dfe dcB|AFA BGB|
"29"ege efg|f/g/af gec|1 dfe dcB:|2 dfe dBA|HD6||

%%%

